public/icons/img/schedule-transfer.svg

<?xml version="1.0" encoding="UTF-8"?>
<svg width="49px" height="49px" viewBox="0 0 49 49" version="1.1" xmlns="http://www.w3.org/2000/svg" xmlns:xlink="http://www.w3.org/1999/xlink">
    <title>UI Elements/Icon / Payments / Schedule Transfer</title>
    <g id="Iconography-&amp;-Interface-Details" stroke="none" stroke-width="1" fill="none" fill-rule="evenodd">
        <g id="Icons" transform="translate(-795.000000, -815.000000)">
            <g id="UI-Elements/Icon-/-Payments-/-Schedule-Transfer" transform="translate(788.000000, 808.000000)">
                <rect id="Rectangle" x="0" y="0" width="63" height="63"></rect>
                <g id="Group" transform="translate(7.000000, 7.000000)">
                    <path d="M1,3.5 L48,3.5 C48.5522847,3.5 49,3.94771525 49,4.5 L49,19.25 L49,19.25 L0,19.25 L0,4.5 C-1.78657678e-16,3.94771525 0.44771525,3.5 1,3.5 Z" id="Rectangle" fill="#004B2E"></path>
                    <path d="M8,0 L13,0 C13.5522847,-1.01453063e-16 14,0.44771525 14,1 L14,9.5 C14,10.0522847 13.5522847,10.5 13,10.5 L8,10.5 C7.44771525,10.5 7,10.0522847 7,9.5 L7,1 C7,0.44771525 7.44771525,1.01453063e-16 8,0 Z" id="Rectangle-Copy" fill="#00B16E"></path>
                    <path d="M36,0 L41,0 C41.5522847,-1.01453063e-16 42,0.44771525 42,1 L42,9.5 C42,10.0522847 41.5522847,10.5 41,10.5 L36,10.5 C35.4477153,10.5 35,10.0522847 35,9.5 L35,1 C35,0.44771525 35.4477153,1.01453063e-16 36,0 Z" id="Rectangle-Copy-4" fill="#00B16E"></path>
                    <path d="M0,17.5 L49,17.5 L49,47 C49,48.1045695 48.1045695,49 47,49 L2,49 C0.8954305,49 1.3527075e-16,48.1045695 0,47 L0,17.5 L0,17.5 Z" id="Rectangle" fill="#00B16E"></path>
                    <path d="M25.2177194,42 C25.5702086,42 25.8629316,41.6540487 25.8628215,41.2244535 L25.8623617,39.4304528 L26.1849856,39.3268083 C28.8167834,38.5316216 29.7504146,36.3548095 29.75,34.7364702 C29.7492311,31.7371183 27.5984592,30.4901292 25.4905395,29.6622009 C23.5116906,28.8760003 22.8790704,28.3996541 22.8788902,27.6965864 C22.8787287,27.0662558 23.4851498,26.4352007 24.8443084,26.4356911 C26.3414066,26.4362314 27.2788245,26.9485844 27.6790713,27.1707881 C27.7653925,27.2173661 27.8557413,27.2435816 27.9452843,27.2436139 C28.1945253,27.2437038 28.422762,27.0682663 28.5299677,26.7987133 L29.1450283,25.2318597 C29.2183851,25.0505473 29.2263952,24.8333243 29.1666564,24.6422747 C29.110949,24.4454001 28.9899148,24.290193 28.835014,24.2028774 C28.0952369,23.7836892 27.2909475,23.5147929 26.3826611,23.3854747 L26.0043453,23.3281241 L26.0039463,21.7717231 C26.0038377,21.347961 25.7157897,21.00068 25.3584478,21.000551 L23.8315109,21 C23.4790217,21 23.1862987,21.3459513 23.1864076,21.7707064 L23.1868515,23.5026447 L22.8642261,23.6004702 C20.7397514,24.2465179 19.4704257,25.8848795 19.4709626,27.9796098 C19.4716704,30.7413869 21.7475751,31.9727814 23.9804291,32.8163945 C26.0407669,33.6239492 26.3208309,34.3222522 26.3209793,34.9011703 C26.3212087,35.7962343 25.358256,36.4465739 24.0329834,36.4460956 C22.9061331,36.445689 21.6928786,36.0990671 20.7893087,35.51883 C20.6949178,35.4567336 20.5916617,35.4256651 20.483567,35.4256261 C20.4150041,35.4256014 20.3456377,35.4410919 20.2770814,35.4672501 C20.1093218,35.5399192 19.9714206,35.6892065 19.8988876,35.8860348 L19.3056176,37.4732528 C19.1726187,37.8407383 19.2840412,38.2645406 19.5768972,38.4615082 C20.329607,38.9844693 21.4485031,39.3717949 22.6357948,39.5331884 L23.0189606,39.5798735 L23.0193822,41.2245272 C23.019492,41.6531542 23.3075398,41.9994422 23.6648817,41.9995712 L25.2177194,42 Z" id="Fill-1-Copy-7" fill="#FFFFFF"></path>
                </g>
            </g>
        </g>
    </g>
</svg>

<svg xmlns="http://www.w3.org/2000/svg" width="49" height="49" fill-rule="evenodd" xmlns:v="https://vecta.io/nano">
    <path d="M1 3.5h47a1 1 0 0 1 1 1v14.75H0V4.5a1 1 0 0 1 1-1z" fill="#004b2e"/>
    <path d="M8 0h5a1 1 0 0 1 1 1v8.5a1 1 0 0 1-1 1H8a1 1 0 0 1-1-1V1a1 1 0 0 1 1-1zm28 0h5a1 1 0 0 1 1 1v8.5a1 1 0 0 1-1 1h-5a1 1 0 0 1-1-1V1a1 1 0 0 1 1-1zM0 17.5h49V47a2 2 0 0 1-2 2H2a2 2 0 0 1-2-2V17.5z"
          fill="#00b16e"/>
    <path d="M25.218 42c.352 0 .645-.346.645-.776V39.43l.323-.104c2.632-.795 3.565-2.972 3.565-4.6-.001-3-2.152-4.246-4.26-5.074-1.98-.786-2.61-1.263-2.612-1.966 0-.63.606-1.26 1.965-1.26a5.55 5.55 0 0 1 2.835.735c.086.047.177.073.266.073.25 0 .477-.175.585-.445l.615-1.567c.073-.18.08-.4.022-.6-.056-.197-.177-.352-.332-.44-.74-.42-1.544-.688-2.452-.817l-.378-.057v-1.556c0-.424-.288-.77-.645-.77h-1.527c-.352 0-.645.346-.645.77v1.732l-.323.098c-2.124.646-3.394 2.284-3.393 4.38.001 2.762 2.277 3.993 4.51 4.837 2.06.808 2.34 1.506 2.34 2.085 0 .895-.963 1.545-2.288 1.545-1.127 0-2.34-.347-3.244-.927a.55.55 0 0 0-.306-.093.58.58 0 0 0-.206.042c-.168.073-.306.222-.378.42l-.593 1.587c-.133.367-.022.79.27.988.753.523 1.872.9 3.06 1.072l.383.047v1.645c0 .43.288.775.645.775h1.553z"
          fill="#fff"/>
</svg>
